X: 1
C: Trad
R: Jig
T: New Rigged Ship, The
M: 6/8
L:1/8
K:G
Z: ABC transcription by Verge Roller
r: 32
|: D | "G" GFG G2 B | "G" GFG G2 B | "D" AFD DEF | "D" AFD DEF |
"G" GFG G2 B | "G" GFG G2 B | "D" AFD DEF | "G" G3-G2 :|
|: B/c/ | "G" d2 B d2 B | "G" GAG "Bm" GBd | "Am" e2 c e2 c | "D" ABA ABc |
"G" d2 B d2 B | "G" GAG GAB | "D" AFD DEF | "G" G3-G2 :|
